icon/lg/flarum.svg

<?xml version="1.0" encoding="UTF-8" standalone="no"?>
<svg viewBox="0 0 512 116" version="1.1" xmlns="http://www.w3.org/2000/svg" xmlns:xlink="http://www.w3.org/1999/xlink" preserveAspectRatio="xMidYMid" height="1em" width="1em">
  <defs>
    <linearGradient x1="50%" y1="100%" x2="50%" y2="0%" id="linearGradient-1">
      <stop stop-color="#D22929" offset="0%"/>
      <stop stop-color="#B71717" offset="100%"/>
    </linearGradient>
    <linearGradient x1="50%" y1="0%" x2="50%" y2="100%" id="linearGradient-2">
      <stop stop-color="#E7762E" offset="0%"/>
      <stop stop-color="#E7562E" offset="100%"/>
    </linearGradient>
  </defs>
  <g>
    <path d="M0.0250618727,75.9308538 L0.00170290096,5.15934008 C0.000762414732,2.30991524 1.96335095,1.22709435 4.37481412,2.73425882 L55.1649832,34.4781145 L55.1649832,113.777778 L7.58395685,84.9008031 C0.989947764,81.310681 0.0343130915,79.0824357 0.0250618727,75.9308538 L0.0250618727,75.9308538 Z" fill="url(#linearGradient-1)"/>
    <path d="M5.17636891,2.20268248e-13 C2.3175393,2.20268248e-13 -5.79781036e-15,2.31151171 0,5.18375159 L1.42648338e-13,75.8518519 C0.143594249,78.2808586 0.0201798227,80.8133544 7.73270885,84.9590282 C7.73270885,84.9590282 0.175491065,77.6162157 12.0673401,77.5757576 L96.5387205,77.5757576 L96.5387205,2.20268248e-13 L5.17636891,2.20268248e-13 L5.17636891,2.20268248e-13 Z" fill="url(#linearGradient-2)"/>
    <path d="M139.636364,20.6868687 L139.636364,44.8215488 L165.494949,44.8215488 L165.494949,67.2323232 L139.636364,67.2323232 L139.636364,113.777778 L118.949495,113.777778 L118.949495,0 L168.942761,0 L168.942761,20.6868687 L139.636364,20.6868687 L139.636364,20.6868687 Z M175.838384,113.777778 L175.838384,0 L196.525253,0 L196.525253,93.0909091 L225.83165,93.0909091 L225.83165,113.777778 L175.838384,113.777778 L175.838384,113.777778 Z M272.377104,91.3670034 L256.861953,91.3670034 L253.414141,113.777778 L231.003367,113.777778 L251.690236,0 L277.548822,0 L298.23569,113.777778 L275.824916,113.777778 L272.377104,91.3670034 L272.377104,91.3670034 Z M262.03367,51.7171717 L260.309764,70.6801347 L270.653199,70.6801347 L268.929293,51.7171717 L265.481481,29.3063973 L262.03367,51.7171717 L262.03367,51.7171717 Z M330.989899,0 C335.561564,0 339.699195,0.572152639 343.057239,1.72390572 C347.24132,2.86079755 350.488576,4.76797302 353.400673,6.8956229 C355.935666,10.1081445 358.056857,13.5955511 360.296296,17.2390572 C361.094658,22.2052152 361.854097,27.4635705 362.020202,34.4781145 C361.854097,41.413406 360.858971,47.7343304 358.572391,53.4410774 C356.878403,57.5428087 353.840649,61.4661411 349.952862,63.7845118 L365.468013,113.777778 L343.057239,113.777778 L330.989899,68.956229 L325.818182,68.956229 L325.818182,113.777778 L305.131313,113.777778 L305.131313,0 L330.989899,0 L330.989899,0 Z M325.818182,20.6868687 L325.818182,48.2693603 L329.265993,48.2693603 C330.881029,48.2693603 332.40531,48.0731453 334.43771,48.2693603 C335.236158,47.2882738 336.515465,46.5314447 337.885522,44.8215488 C338.801919,44.2889545 339.700157,42.8033271 339.609428,41.3737374 C341.006701,39.1032182 341.333333,36.6645467 341.333333,34.4781145 C341.333333,29.1522045 340.271781,25.8726117 337.885522,24.1346801 C336.025507,21.7240048 333.27636,20.6868687 329.265993,20.6868687 L325.818182,20.6868687 L325.818182,20.6868687 Z M424.080808,86.1952862 C424.080808,96.3887582 421.749917,103.693356 417.185185,108.606061 C412.426211,113.140046 405.537132,115.501684 396.498316,115.501684 C378.083999,115.501684 368.915825,105.835448 368.915825,86.1952862 L368.915825,0 L389.602694,0 L389.602694,86.1952862 C389.602694,86.1952862 388.95757,94.543448 396.498316,94.8148148 C404.039063,95.0861816 403.393939,86.1952862 403.393939,86.1952862 L403.393939,0 L424.080808,0 L424.080808,86.1952862 Z M465.454545,91.3670034 L462.006734,77.5757576 L456.835017,60.3367003 L455.111111,60.3367003 L455.111111,113.777778 L434.424242,113.777778 L434.424242,0 L455.111111,0 L465.454545,31.030303 L472.350168,53.4410774 L474.074074,53.4410774 L480.969697,29.3063973 L491.313131,0 L512,0 L512,113.777778 L491.313131,113.777778 L491.313131,60.3367003 L489.589226,60.3367003 L484.417508,77.5757576 L480.969697,91.3670034 L465.454545,91.3670034 L465.454545,91.3670034 Z" fill="url(#linearGradient-2)"/>
  </g>
</svg>

<svg width="512" height="116" xmlns="http://www.w3.org/2000/svg" preserveAspectRatio="xMidYMid"><defs><linearGradient x1="50%" y1="100%" x2="50%" y2="0%" id="a"><stop stop-color="#D22929" offset="0%"/><stop stop-color="#B71717" offset="100%"/></linearGradient><linearGradient x1="50%" y1="0%" x2="50%" y2="100%" id="b"><stop stop-color="#E7762E" offset="0%"/><stop stop-color="#E7562E" offset="100%"/></linearGradient></defs><path d="M.025 75.93.002 5.16C0 2.31 1.963 1.226 4.375 2.733l50.79 31.744v79.3L7.584 84.9C.99 81.31.034 79.082.025 75.93Z" fill="url(#a)"/><path d="M5.176 0A5.174 5.174 0 0 0 0 5.184v70.668c.144 2.429.02 4.961 7.733 9.107 0 0-7.558-7.343 4.334-7.383H96.54V0H5.176ZM139.636 20.687v24.135h25.859v22.41h-25.859v46.546H118.95V0h49.994v20.687h-29.307Zm36.202 93.09V0h20.687v93.09h29.307v20.688h-49.994Zm96.54-22.41h-15.516l-3.448 22.41h-22.41L251.69 0h25.859l20.687 113.778h-22.411l-3.448-22.411Zm-10.344-39.65L260.31 70.68h10.343l-1.724-18.963-3.448-22.41-3.447 22.41ZM330.99 0c4.572 0 8.71.572 12.067 1.724 4.184 1.137 7.432 3.044 10.344 5.172 2.535 3.212 4.656 6.7 6.895 10.343.799 4.966 1.558 10.225 1.724 17.24-.166 6.934-1.161 13.255-3.448 18.962-1.694 4.102-4.731 8.025-8.62 10.344l15.516 49.993h-22.41L330.99 68.956h-5.172v44.822h-20.687V0h25.859Zm-5.172 20.687v27.582h3.448c1.615 0 3.14-.196 5.172 0 .798-.98 2.077-1.738 3.448-3.447.916-.533 1.814-2.019 1.723-3.448 1.398-2.27 1.724-4.71 1.724-6.896 0-5.326-1.061-8.605-3.447-10.343-1.86-2.411-4.61-3.448-8.62-3.448h-3.448Zm98.263 65.508c0 10.194-2.331 17.498-6.896 22.411-4.759 4.534-11.648 6.896-20.687 6.896-18.414 0-27.582-9.667-27.582-29.307V0h20.687v86.195s-.645 8.348 6.895 8.62c7.541.271 6.896-8.62 6.896-8.62V0h20.687v86.195Zm41.374 5.172-3.448-13.791-5.172-17.24h-1.724v53.442h-20.687V0h20.687l10.344 31.03 6.895 22.411h1.724l6.896-24.135L491.313 0H512v113.778h-20.687V60.337h-1.724l-5.171 17.239-3.448 13.791h-15.515Z" fill="url(#b)"/></svg>
